www/assets/icons/domain_disabled.svg

<svg width="24" height="24" viewBox="0 0 24 24" xmlns="http://www.w3.org/2000/svg" fill='currentColor'><g clip-path="url(#clip0_1616_4577)"><path d="M8.80002 4.0999H10.8V6.0999H9.90002L12.8 8.9999V8.0999H20.8V16.9999L22.8 18.9999V6.0999H12.8V2.0999H5.90002L8.80002 4.9999V4.0999ZM16.8 10.0999H18.8V12.0999H16.8V10.0999ZM2.10002 0.899902L0.900024 2.1999L2.80002 4.0999V20.0999H18.8L21.8 23.0999L23.1 21.7999L2.10002 0.899902ZM6.80002 18.0999H4.80002V16.0999H6.80002V18.0999ZM6.80002 14.0999H4.80002V12.0999H6.80002V14.0999ZM6.80002 10.0999H4.80002V8.0999H6.80002V10.0999ZM10.8 18.0999H8.80002V16.0999H10.8V18.0999ZM10.8 14.0999H8.80002V12.0999H10.8V14.0999ZM12.8 18.0999V16.0999H14.8L16.8 18.0999H12.8Z"/></g><defs><clipPath id="clip0_1616_4577"><rect width="24" height="24"/></clipPath></defs></svg>

<svg xmlns="http://www.w3.org/2000/svg" width="24" height="24" viewBox="0 0 24 24" fill='currentColor'><g clip-path="url(#a)"><path d="M8.8 4.1h2v2h-.9L12.8 9v-.9h8V17l2 2V6.1h-10v-4H5.9L8.8 5zm8 6h2v2h-2zM2.1.9.9 2.2l1.9 1.9v16h16l3 3 1.3-1.3zm4.7 17.2h-2v-2h2zm0-4h-2v-2h2zm0-4h-2v-2h2zm4 8h-2v-2h2zm0-4h-2v-2h2zm2 4v-2h2l2 2z"/></g><defs><clipPath id="a"><path d="M0 0h24v24H0z"/></clipPath></defs></svg>
